src/images/icon-adv-sack.svg

<svg width="57" height="74" viewBox="0 0 57 74" fill="none" xmlns="http://www.w3.org/2000/svg">
<path d="M56.9294 63.8025C55.7584 57.4814 53.902 51.7385 51.4119 46.7332C49.4067 42.7028 46.9879 39.1375 44.2223 36.1365C41.1583 32.8114 38.3485 30.916 36.6829 29.9659C42.5711 20.7833 42.7436 12.4626 42.7436 12.3771C42.7436 10.3636 41.7316 8.55493 40.1321 7.31905V1.44531C40.1321 0.64721 39.4825 0 38.6814 0C37.8803 0 37.2307 0.64721 37.2307 1.44531V5.91218C36.5445 5.73499 35.8196 5.63815 35.0689 5.63815C32.2929 5.63815 29.8312 6.95107 28.4827 8.92146C27.1343 6.95093 24.6724 5.63815 21.8964 5.63815C21.1431 5.63815 20.4154 5.73557 19.7268 5.91406V1.44531C19.7268 0.64721 19.0773 0 18.2761 0C17.4749 0 16.8254 0.64721 16.8254 1.44531V7.32497C15.2305 8.56071 14.2216 10.3669 14.2216 12.3771C14.2216 12.4626 14.3941 20.7921 20.2914 29.9805C18.6229 30.9353 15.8262 32.8282 12.7777 36.1365C10.0121 39.1377 7.59339 42.703 5.58826 46.7332C3.09801 51.7383 1.24172 57.4813 0.0705817 63.8025C-0.300503 65.8054 0.821311 67.7706 2.73795 68.4753L7.70742 70.3026C8.17149 70.4733 8.6376 70.6366 9.10486 70.7955C9.12009 70.8011 9.13576 70.8057 9.15128 70.8108C13.3751 72.2427 17.7224 73.1921 22.1102 73.6591C22.1799 73.6713 22.2511 73.6781 22.3235 73.6802C24.3768 73.8913 26.4382 74 28.4999 74C35.5442 74 42.5882 72.7676 49.2924 70.3026L54.2619 68.4753C56.1788 67.7706 57.3005 65.8054 56.9294 63.8025ZM17.1232 12.3772C17.1232 11.1491 17.8415 10.0542 18.9562 9.34913C19.0067 9.32239 19.0552 9.29262 19.102 9.26024C19.8881 8.80093 20.8535 8.52892 21.8966 8.52892C24.4128 8.52892 26.5054 10.1138 26.6606 12.1377C26.7333 13.0824 27.5338 13.8224 28.4827 13.8224C29.4317 13.8224 30.2323 13.0824 30.305 12.1373C30.4602 10.1138 32.553 8.52892 35.0691 8.52892C36.097 8.52892 37.0495 8.79312 37.8294 9.24044C37.894 9.28727 37.9624 9.3289 38.0344 9.36474C39.1347 10.0701 39.8424 11.1571 39.8424 12.3749C39.8417 12.4547 39.5131 20.5475 33.8051 29.0688C33.7336 29.1756 33.6619 29.2823 33.5886 29.3892C32.4778 29.9247 31.3021 30.2753 30.1064 30.4417C30.4109 30.0432 30.7263 29.5829 31.0232 29.0688C31.4241 28.3746 31.7907 27.5821 32.0474 26.7061C32.2721 25.9398 31.8307 25.1374 31.0617 24.9135C30.2925 24.6898 29.4871 25.1293 29.2625 25.8956C28.8691 27.2377 28.1029 28.3453 27.4947 29.0686C27.0122 29.6429 26.6294 29.9753 26.6123 29.9899C26.4875 30.0953 26.3864 30.2178 26.3068 30.3503C25.3019 30.1616 24.316 29.8417 23.3767 29.3889C23.3036 29.2821 23.2319 29.1753 23.1604 29.0686C17.4524 20.5478 17.124 12.4548 17.1232 12.3772ZM53.2574 65.7635L48.288 67.5908C48.053 67.6772 47.8167 67.7587 47.5808 67.842C46.8572 64.7476 44.759 56.8669 40.9484 50.772C40.5248 50.0944 39.63 49.8875 38.9499 50.3094C38.2698 50.7315 38.062 51.6229 38.4856 52.3004C42.1355 58.1379 44.1766 66.0176 44.8088 68.7434C37.9761 70.7693 30.8496 71.4922 23.8065 70.9151C23.865 69.4181 24.1724 66.7376 25.4886 64.0611C25.8411 63.3442 25.5436 62.4784 24.8242 62.1269C24.1049 61.7759 23.2358 62.0722 22.883 62.7889C21.4017 65.8011 21.0057 68.791 20.9162 70.6063C17.6468 70.1709 14.4073 69.452 11.2352 68.4509C11.9539 64.3605 14.7773 50.6818 21.483 43.0162C22.0093 42.4144 21.9465 41.5015 21.3424 40.9768C20.7385 40.4525 19.8221 40.5152 19.2955 41.1169C12.2733 49.1447 9.31768 62.6779 8.45292 67.4954L3.74255 65.7633C3.15415 65.547 2.80976 64.943 2.92393 64.3273C5.4384 50.7545 10.762 42.6456 14.7852 38.2332C18.1468 34.5461 21.1846 32.7548 22.4034 32.1261C24.3323 33.0044 26.407 33.4449 28.4825 33.4449C30.565 33.4449 32.6467 33.0012 34.5811 32.117C37.3487 33.5374 49.7759 41.1156 54.0761 64.3273C54.1902 64.9431 53.8458 65.547 53.2574 65.7635Z" fill="#E7E7E7"/>
<path d="M38.9694 46.611C38.9408 46.4707 38.8996 46.3327 38.845 46.2015C38.7904 46.0679 38.7225 45.9409 38.6442 45.8227C38.5656 45.7022 38.4739 45.5906 38.3735 45.4898C37.8671 44.9796 37.1118 44.7472 36.4045 44.8898C36.2646 44.9183 36.1271 44.9621 35.9939 45.0168C35.8629 45.0716 35.7363 45.1394 35.6184 45.2183C35.4984 45.2971 35.3871 45.3891 35.2866 45.4898C35.1862 45.5906 35.0946 45.7022 35.0138 45.8227C34.9352 45.9409 34.8675 46.0679 34.813 46.2015C34.7584 46.3329 34.7169 46.4707 34.6885 46.611C34.6602 46.7512 34.6471 46.8957 34.6471 47.0378C34.6471 47.1802 34.6604 47.3249 34.6885 47.4648C34.7167 47.6048 34.7608 47.743 34.8154 47.8743C34.8699 48.0079 34.9376 48.1349 35.014 48.2532C35.0948 48.3736 35.1865 48.4853 35.2869 48.586C35.3873 48.6868 35.4986 48.7788 35.6187 48.8598C35.7365 48.9364 35.8632 49.0043 35.9941 49.0591C36.1273 49.1138 36.2648 49.1576 36.4047 49.1839C36.5444 49.2123 36.6885 49.2275 36.8302 49.2275C36.9721 49.2275 37.1164 49.2123 37.2558 49.1839C37.3958 49.1576 37.5333 49.1138 37.664 49.0591C37.7972 49.0043 37.9238 48.9362 38.0417 48.8598C38.1617 48.7788 38.2731 48.6868 38.3735 48.586C38.4739 48.4853 38.5656 48.3736 38.6442 48.2532C38.7225 48.1349 38.7904 48.0079 38.845 47.8743C38.8996 47.743 38.9408 47.605 38.9694 47.4648C38.9978 47.3247 39.0129 47.1802 39.0129 47.0378C39.0129 46.8957 38.998 46.751 38.9694 46.611Z" fill="#E7E7E7"/>
<path d="M34.4984 20.821C34.47 20.683 34.4287 20.5451 34.3742 20.4115C34.3196 20.2801 34.2517 20.1531 34.1733 20.0348C34.0948 19.9144 34.0031 19.8027 33.9027 19.702C33.3941 19.1917 32.6409 18.9594 31.9315 19.102C31.794 19.1304 31.6565 19.172 31.5233 19.2268C31.3923 19.2815 31.2657 19.3494 31.1478 19.4283C31.0278 19.5093 30.9162 19.6013 30.8158 19.702C30.7154 19.8027 30.6237 19.9144 30.543 20.0348C30.4646 20.1531 30.3967 20.2801 30.3421 20.4115C30.2876 20.5451 30.2463 20.683 30.2179 20.821C30.1896 20.9634 30.1765 21.1081 30.1765 21.2502C30.1765 21.3926 30.1898 21.5373 30.2179 21.6772C30.2463 21.8174 30.2876 21.9554 30.3421 22.0868C30.3967 22.2181 30.4646 22.3473 30.543 22.4656C30.6237 22.5839 30.7154 22.6977 30.8158 22.7985C30.9162 22.8992 31.0278 22.9912 31.1478 23.07C31.2657 23.1486 31.3923 23.2167 31.5233 23.2715C31.6565 23.3262 31.794 23.3676 31.9315 23.3963C32.0734 23.4248 32.2177 23.4399 32.3594 23.4399C32.5012 23.4399 32.6455 23.4248 32.785 23.3963C32.9247 23.3676 33.0623 23.3262 33.1932 23.2715C33.3262 23.2167 33.4528 23.1486 33.5706 23.07C33.6909 22.9912 33.8023 22.8992 33.9027 22.7985C34.0031 22.6977 34.0948 22.5841 34.1733 22.4656C34.2517 22.3473 34.3196 22.2179 34.3742 22.0868C34.4287 21.9556 34.47 21.8176 34.4984 21.6772C34.5268 21.5371 34.542 21.3926 34.542 21.2502C34.542 21.1081 34.5268 20.9634 34.4984 20.821Z" fill="#E7E7E7"/>
</svg>

<svg xmlns="http://www.w3.org/2000/svg" width="57" height="74" fill="none"><path fill="#E7E7E7" d="M56.93 63.8c-1.17-6.32-3.03-12.06-5.52-17.07-2-4.03-4.4-7.6-7.18-10.6-3.06-3.32-5.87-5.2-7.54-6.16 5.9-9.2 6.06-17.5 6.06-17.6 0-2-1-3.82-2.6-5.05V1.45c0-.8-.66-1.45-1.46-1.45-.8 0-1.45.65-1.45 1.45V5.9c-.7-.17-1.4-.26-2.16-.26-2.78 0-5.24 1.3-6.6 3.28-1.34-1.97-3.8-3.28-6.57-3.28-.76 0-1.48.1-2.17.27V1.46c0-.8-.65-1.45-1.45-1.45-.8 0-1.45.65-1.45 1.45v5.87c-1.6 1.24-2.6 3.05-2.6 5.06 0 .08.16 8.4 6.06 17.6-1.68.96-4.47 2.85-7.52 6.16-2.77 3-5.2 6.56-7.2 10.6-2.48 5-4.34 10.74-5.5 17.06-.38 2 .74 3.97 2.66 4.68L7.7 70.3c.47.17.94.34 1.4.5.02 0 .04 0 .05 0 4.23 1.44 8.57 2.4 12.96 2.86.08 0 .15.02.22.02 2.06.2 4.12.32 6.18.32 7.04 0 14.1-1.23 20.8-3.7l4.96-1.82c1.92-.7 3.04-2.67 2.67-4.68zm-39.8-51.42c0-1.23.7-2.33 1.83-3.03.05-.03.1-.06.14-.1.8-.45 1.75-.72 2.8-.72 2.5 0 4.6 1.58 4.76 3.6.07.95.87 1.7 1.82 1.7.95 0 1.75-.75 1.82-1.7.16-2.02 2.25-3.6 4.77-3.6 1.03 0 1.98.26 2.76.7.06.06.13.1.2.13 1.1.7 1.8 1.8 1.8 3 0 .1-.32 8.2-6.02 16.7-.07.12-.14.22-.2.33-1.12.52-2.3.88-3.5 1.04.3-.4.63-.86.92-1.37.4-.7.77-1.5 1.03-2.36.22-.76-.22-1.56-1-1.8-.76-.2-1.56.23-1.8 1-.38 1.34-1.15 2.45-1.76 3.17-.5.57-.87.9-.9.92-.1.1-.2.22-.3.35-1-.2-1.98-.5-2.92-.96-.08-.12-.15-.22-.22-.33-5.7-8.52-6.04-16.62-6.04-16.7zm36.13 53.38L48.3 67.6c-.25.08-.48.16-.72.24-.72-3.1-2.82-10.97-6.63-17.07-.43-.68-1.32-.88-2-.46-.68.43-.9 1.32-.46 2 3.64 5.84 5.68 13.72 6.3 16.44-6.82 2.03-13.95 2.75-21 2.18.06-1.5.37-4.18 1.7-6.86.34-.72.04-1.58-.68-1.93-.72-.35-1.58-.06-1.94.66-1.48 3-1.87 6-1.96 7.8-3.27-.43-6.5-1.15-9.68-2.15.7-4.1 3.54-17.77 10.24-25.43.53-.6.47-1.52-.14-2.04-.6-.53-1.52-.46-2.04.14-7.03 8.02-9.98 21.56-10.85 26.38l-4.7-1.74c-.6-.2-.94-.82-.83-1.43 2.52-13.58 7.84-21.68 11.87-26.1 3.35-3.68 6.38-5.48 7.6-6.1 1.93.87 4 1.3 6.08 1.3 2.1 0 4.17-.43 6.1-1.3 2.77 1.4 15.2 9 19.5 32.2.1.6-.23 1.22-.82 1.43zM38.97 46.6c-.03-.13-.07-.27-.13-.4-.05-.13-.12-.26-.2-.38-.07-.12-.17-.23-.27-.33-.5-.52-1.26-.75-1.97-.6-.14.02-.27.06-.4.12-.14.05-.26.12-.38.2-.12.08-.23.17-.33.27s-.2.2-.3.32c-.06.12-.13.25-.2.38-.04.13-.08.27-.1.4-.04.15-.05.3-.05.44s0 .28.04.42c.02.14.06.28.12.4.05.15.12.27.2.4.07.1.17.23.27.33s.2.18.32.26c.12.08.24.14.37.2.13.05.26.1.4.12.14.03.3.05.43.05.14 0 .3-.02.43-.05.14-.02.27-.07.4-.12.14-.06.26-.12.38-.2.12-.08.23-.17.33-.27s.2-.23.27-.35c.08-.12.15-.24.2-.38.06-.13.1-.27.13-.4.03-.15.04-.3.04-.43 0-.14 0-.3-.03-.43zM34.5 20.82c-.03-.14-.07-.27-.13-.4-.05-.14-.12-.27-.2-.4-.08-.1-.17-.22-.27-.32-.5-.5-1.26-.74-1.97-.6-.14.03-.27.07-.4.13-.14.05-.26.12-.38.2-.12.08-.23.17-.33.27s-.2.2-.28.33c-.08.12-.14.25-.2.38-.05.15-.1.28-.12.42-.03.14-.04.3-.04.43 0 .14 0 .3.04.43.03.14.07.28.12.4.06.14.12.27.2.4.08.1.18.22.28.32.1.1.2.2.33.27.12.08.24.15.37.2.14.06.27.1.4.13.15.02.3.04.44.04s.3-.02.42-.04c.14-.03.28-.07.4-.13.15-.05.27-.12.4-.2.1-.08.22-.17.32-.27s.2-.22.27-.33c.08-.12.15-.25.2-.38.06-.14.1-.28.13-.42.03-.14.04-.3.04-.43 0-.14 0-.3-.04-.43z"/></svg>
